img/chelyabinsk/mail.svg

<svg width="18" height="18" viewBox="0 0 18 18" fill="none" xmlns="http://www.w3.org/2000/svg">
<path d="M6.18746 7.59381H11.8124C12.1232 7.59381 12.3749 7.34209 12.3749 7.03132V6.46882C12.3749 6.15804 12.1232 5.90632 11.8124 5.90632H6.18746C5.87668 5.90632 5.62497 6.15804 5.62497 6.46882V7.03132C5.62497 7.34209 5.87668 7.59381 6.18746 7.59381ZM5.62497 10.4063C5.62497 10.7171 5.87668 10.9688 6.18746 10.9688H11.8124C12.1232 10.9688 12.3749 10.7171 12.3749 10.4063V9.8438C12.3749 9.53302 12.1232 9.2813 11.8124 9.2813H6.18746C5.87668 9.2813 5.62497 9.53302 5.62497 9.8438V10.4063ZM8.99994 14.6647C8.42268 14.6647 7.84542 14.4869 7.35253 14.1307L0 8.81935V16.3125C0 17.2445 0.755503 18 1.68749 18H16.3124C17.2444 18 17.9999 17.2445 17.9999 16.3125V8.81935L10.6474 14.1307C10.1545 14.4865 9.57721 14.6647 8.99994 14.6647ZM17.3534 5.72878C17.0422 5.4848 16.7473 5.25523 16.3124 4.92688V3.37509C16.3124 2.4431 15.5569 1.6876 14.6249 1.6876H11.8986C11.7917 1.61025 11.6922 1.53783 11.5807 1.45697C10.9898 1.02561 9.81556 -0.0121961 8.99994 0.000108469C8.18432 -0.0121961 7.01046 1.02561 6.41914 1.45697C6.3077 1.53783 6.2082 1.61025 6.10133 1.6876H3.37498C2.44299 1.6876 1.68749 2.4431 1.68749 3.37509V4.92688C1.25261 5.25488 0.95765 5.4848 0.646519 5.72878C0.445131 5.88661 0.282273 6.08817 0.170266 6.31821C0.058258 6.54826 3.4657e-05 6.80076 0 7.05663L0 7.43104L3.37498 9.86911V3.37509H14.6249V9.86911L17.9999 7.43104V7.05663C17.9999 6.53843 17.7615 6.0487 17.3534 5.72878Z" fill="#F76969"/>
</svg>

<svg width="18" height="18" fill="none" xmlns="http://www.w3.org/2000/svg"><path d="M6.187 7.594h5.625a.563.563 0 0 0 .563-.563V6.47a.562.562 0 0 0-.563-.563H6.187a.562.562 0 0 0-.562.563v.562c0 .311.252.563.562.563Zm-.562 2.812c0 .311.252.563.562.563h5.625a.563.563 0 0 0 .563-.563v-.562a.562.562 0 0 0-.563-.563H6.187a.562.562 0 0 0-.562.563v.562ZM9 14.665a2.808 2.808 0 0 1-1.647-.534L0 8.819v7.493C0 17.244.756 18 1.687 18h14.625c.932 0 1.688-.756 1.688-1.688V8.82l-7.353 5.312A2.81 2.81 0 0 1 9 14.665Zm8.353-8.936a66.062 66.062 0 0 0-1.04-.802V3.375c0-.932-.756-1.687-1.688-1.687h-2.726l-.318-.231C10.99 1.026 9.816-.013 9 0c-.816-.012-1.99 1.026-2.58 1.457l-.319.23H3.375c-.932 0-1.688.756-1.688 1.688v1.552c-.434.328-.73.558-1.04.802A1.687 1.687 0 0 0 0 7.057v.374l3.375 2.438V3.375h11.25V9.87L18 7.431v-.374c0-.519-.238-1.008-.647-1.328Z" fill="#F76969"/></svg>
